static/img/kroki/c68c7899c39a2750c9f9ec80dc6f4b0d.svg

<?xml version="1.0" encoding="us-ascii" standalone="no"?><svg xmlns="http://www.w3.org/2000/svg" xmlns:xlink="http://www.w3.org/1999/xlink" contentStyleType="text/css" height="152px" preserveAspectRatio="none" style="width:604px;height:152px;" version="1.1" viewBox="0 0 604 152" width="604px" zoomAndPan="magnify"><defs/><g><!--class kubernetes_cluster--><g id="elem_kubernetes_cluster"><rect codeLine="23" fill="#3D176E" height="39.7891" id="kubernetes_cluster" rx="2.5" ry="2.5" style="stroke:#000D19;stroke-width:0.5;" width="201" x="7" y="7"/><ellipse cx="22" cy="26.8945" fill="#ADD1B2" rx="11" ry="11" style="stroke:#181818;stroke-width:1.0;"/><path d="M24.9688,32.5352 Q24.3906,32.832 23.75,32.9727 Q23.1094,33.1289 22.4063,33.1289 Q19.9063,33.1289 18.5781,31.4883 Q17.2656,29.832 17.2656,26.707 Q17.2656,23.582 18.5781,21.9258 Q19.9063,20.2695 22.4063,20.2695 Q23.1094,20.2695 23.75,20.4258 Q24.4063,20.582 24.9688,20.8789 L24.9688,23.5977 Q24.3438,23.0195 23.75,22.7539 Q23.1563,22.4727 22.5313,22.4727 Q21.1875,22.4727 20.5,23.5508 Q19.8125,24.6133 19.8125,26.707 Q19.8125,28.8008 20.5,29.8789 Q21.1875,30.9414 22.5313,30.9414 Q23.1563,30.9414 23.75,30.6758 Q24.3438,30.3945 24.9688,29.8164 L24.9688,32.5352 Z " fill="#000000"/><text fill="#D9B8FF" font-family="Helvetica" font-size="17" lengthAdjust="spacing" textLength="159" x="41" y="32.7798">kubernetes_cluster</text></g><!--class kubernetes_persistent_volume--><g id="elem_kubernetes_persistent_volume"><rect codeLine="26" fill="#3D176E" height="39.7891" id="kubernetes_persistent_volume" rx="2.5" ry="2.5" style="stroke:#000D19;stroke-width:0.5;" width="300" x="113.5" y="106.79"/><ellipse cx="128.5" cy="126.6845" fill="#ADD1B2" rx="11" ry="11" style="stroke:#181818;stroke-width:1.0;"/><path d="M131.4688,132.3252 Q130.8906,132.622 130.25,132.7627 Q129.6094,132.9189 128.9063,132.9189 Q126.4063,132.9189 125.0781,131.2783 Q123.7656,129.622 123.7656,126.497 Q123.7656,123.372 125.0781,121.7158 Q126.4063,120.0595 128.9063,120.0595 Q129.6094,120.0595 130.25,120.2158 Q130.9063,120.372 131.4688,120.6689 L131.4688,123.3877 Q130.8438,122.8095 130.25,122.5439 Q129.6563,122.2627 129.0313,122.2627 Q127.6875,122.2627 127,123.3408 Q126.3125,124.4033 126.3125,126.497 Q126.3125,128.5908 127,129.6689 Q127.6875,130.7314 129.0313,130.7314 Q129.6563,130.7314 130.25,130.4658 Q130.8438,130.1845 131.4688,129.6064 L131.4688,132.3252 Z " fill="#000000"/><text fill="#D9B8FF" font-family="Helvetica" font-size="17" lengthAdjust="spacing" textLength="258" x="147.5" y="132.5698">kubernetes_persistent_volume</text></g><!--class kubernetes_persistent_volume_claim--><g id="elem_kubernetes_persistent_volume_claim"><rect codeLine="29" fill="#3D176E" height="39.7891" id="kubernetes_persistent_volume_claim" rx="2.5" ry="2.5" style="stroke:#000D19;stroke-width:0.5;" width="354" x="243.5" y="7"/><ellipse cx="258.5" cy="26.8945" fill="#ADD1B2" rx="11" ry="11" style="stroke:#181818;stroke-width:1.0;"/><path d="M261.4688,32.5352 Q260.8906,32.832 260.25,32.9727 Q259.6094,33.1289 258.9063,33.1289 Q256.4063,33.1289 255.0781,31.4883 Q253.7656,29.832 253.7656,26.707 Q253.7656,23.582 255.0781,21.9258 Q256.4063,20.2695 258.9063,20.2695 Q259.6094,20.2695 260.25,20.4258 Q260.9063,20.582 261.4688,20.8789 L261.4688,23.5977 Q260.8438,23.0195 260.25,22.7539 Q259.6563,22.4727 259.0313,22.4727 Q257.6875,22.4727 257,23.5508 Q256.3125,24.6133 256.3125,26.707 Q256.3125,28.8008 257,29.8789 Q257.6875,30.9414 259.0313,30.9414 Q259.6563,30.9414 260.25,30.6758 Q260.8438,30.3945 261.4688,29.8164 L261.4688,32.5352 Z " fill="#000000"/><text fill="#D9B8FF" font-family="Helvetica" font-size="17" lengthAdjust="spacing" textLength="312" x="277.5" y="32.7798">kubernetes_persistent_volume_claim</text></g><!--link kubernetes_cluster to kubernetes_persistent_volume--><g id="link_kubernetes_cluster_kubernetes_persistent_volume"><path codeLine="32" d="M138.32,47.22 C165.67,64.36 200.3269,86.0822 227.6569,103.2222 " fill="none" id="kubernetes_cluster-to-kubernetes_persistent_volume" style="stroke:#1A83AF;stroke-width:2.0;"/><polygon fill="#1A83AF" points="232.74,106.41,227.2406,98.2395,228.5041,103.7535,222.9902,105.0169,232.74,106.41" style="stroke:#1A83AF;stroke-width:2.0;"/></g><!--link kubernetes_persistent_volume_claim to kubernetes_persistent_volume--><g id="link_kubernetes_persistent_volume_claim_kubernetes_persistent_volume"><path codeLine="33" d="M389.48,47.22 C361.96,64.36 327.0525,86.0972 299.5425,103.2372 " fill="none" id="kubernetes_persistent_volume_claim-to-kubernetes_persistent_volume" style="stroke:#1A83AF;stroke-width:2.0;"/><polygon fill="#1A83AF" points="294.45,106.41,304.2039,105.0457,298.6937,103.766,299.9735,98.2558,294.45,106.41" style="stroke:#1A83AF;stroke-width:2.0;"/></g><!--SRC=[ZP91IyD048Nl-HKBEHSIYwQv26cWwAM8zIPIjjdPPaco6sOdBLNyxoPMPKtQjDTztxxtPfXS2M1GrNHW5LGRGElPGkcQ8wzOWcZsgIaDCbzABgTHNrmOJHU19Q-0FK2v0r8PxnClkSeA3TQo6qUQywpOeccqEDeJScrR2JGvL5foQnCYL9k6m2aZuirCoZxPD_Md8epkO80P580_I1048epxoCMeqRd_Y9Lw1nQwIriQWa7DGSGtDTgo8voIWq5_zRCTdxWGIc_PhVFsVEo46l3V-ohdmkmxMlBIkZ6M0C7GeOPqC1N4Co6Za_3ZETZBkjMnecalLGE1NMTbq_rZ7vxtELJhzg1LgsjQxqpPjBDUoRM-N5L7-aJQvDKFazaqMRnDxaTzl2j2hZVx0W00]--></g></svg>

<svg xmlns="http://www.w3.org/2000/svg" width="604" height="152" viewBox="0 0 604 152"><rect width="201" height="39.789" x="7" y="7" fill="#3D176E" rx="2.5" ry="2.5" style="stroke:#000d19;stroke-width:.5"/><circle cx="22" cy="26.895" r="11" fill="#ADD1B2" style="stroke:#181818;stroke-width:1"/><path d="M24.969 32.535q-.578.297-1.219.438-.64.156-1.344.156-2.5 0-3.828-1.64-1.312-1.657-1.312-4.782t1.312-4.781q1.328-1.656 3.828-1.656.703 0 1.344.156.656.156 1.219.453v2.719q-.625-.578-1.219-.844-.594-.281-1.219-.281-1.343 0-2.031 1.078-.687 1.062-.687 3.156t.687 3.172q.688 1.062 2.031 1.062.625 0 1.219-.265.594-.281 1.219-.86z"/><text x="41" y="32.78" fill="#D9B8FF" font-family="Helvetica" font-size="17" textLength="159">kubernetes_cluster</text><rect width="300" height="39.789" x="113.5" y="106.79" fill="#3D176E" rx="2.5" ry="2.5" style="stroke:#000d19;stroke-width:.5"/><circle cx="128.5" cy="126.684" r="11" fill="#ADD1B2" style="stroke:#181818;stroke-width:1"/><path d="M131.469 132.325q-.578.297-1.219.438-.64.156-1.344.156-2.5 0-3.828-1.64-1.312-1.657-1.312-4.782t1.312-4.781q1.328-1.656 3.828-1.656.703 0 1.344.156.656.156 1.219.453v2.719q-.625-.579-1.219-.844-.594-.281-1.219-.281-1.344 0-2.031 1.078-.687 1.062-.687 3.156t.687 3.172q.688 1.062 2.031 1.062.625 0 1.219-.265.594-.281 1.219-.86z"/><text x="147.5" y="132.57" fill="#D9B8FF" font-family="Helvetica" font-size="17" textLength="258">kubernetes_persistent_volume</text><rect width="354" height="39.789" x="243.5" y="7" fill="#3D176E" rx="2.5" ry="2.5" style="stroke:#000d19;stroke-width:.5"/><circle cx="258.5" cy="26.895" r="11" fill="#ADD1B2" style="stroke:#181818;stroke-width:1"/><path d="M261.469 32.535q-.578.297-1.219.438-.64.156-1.344.156-2.5 0-3.828-1.64-1.312-1.657-1.312-4.782t1.312-4.781q1.328-1.656 3.828-1.656.703 0 1.344.156.656.156 1.219.453v2.719q-.625-.578-1.219-.844-.594-.281-1.219-.281-1.344 0-2.031 1.078-.687 1.062-.687 3.156t.687 3.172q.688 1.062 2.031 1.062.625 0 1.219-.265.594-.281 1.219-.86z"/><text x="277.5" y="32.78" fill="#D9B8FF" font-family="Helvetica" font-size="17" textLength="312">kubernetes_persistent_volume_claim</text><path fill="none" d="M138.32 47.22c27.35 17.14 62.007 38.862 89.337 56.002" style="stroke:#1a83af;stroke-width:2"/><path fill="#1A83AF" d="m232.74 106.41-5.5-8.17 1.264 5.514-5.514 1.263z" style="stroke:#1a83af;stroke-width:2"/><path fill="none" d="M389.48 47.22c-27.52 17.14-62.428 38.877-89.937 56.017" style="stroke:#1a83af;stroke-width:2"/><path fill="#1A83AF" d="m294.45 106.41 9.754-1.364-5.51-1.28 1.28-5.51z" style="stroke:#1a83af;stroke-width:2"/></svg>
